images/logo-footer.svg

<svg width="145" height="36" viewBox="0 0 145 36" fill="none" xmlns="http://www.w3.org/2000/svg">
<path d="M27.2 0V35.3H19.6V32.9C17.9 34.8 15.5 36 12.1 36C5.5 36 0 30.2 0 22.7C0 15.2 5.5 9.4 12.1 9.4C15.5 9.4 18 10.6 19.6 12.5V0H27.2ZM19.6 22.7C19.6 18.9 17.1 16.5 13.6 16.5C10.1 16.5 7.6 18.9 7.6 22.7C7.6 26.5 10.1 28.9 13.6 28.9C17.1 28.8 19.6 26.5 19.6 22.7Z" fill="#FFC700"/>
<path d="M43.7001 29.2C45.8001 29.2 47.5001 28.4 48.5001 27.3L54.6001 30.8C52.1001 34.2 48.4001 36 43.6001 36C35.0001 36 29.6001 30.2 29.6001 22.7C29.6001 15.2 35.0001 9.40002 43.0001 9.40002C50.4001 9.40002 55.8001 15.1 55.8001 22.7C55.8001 23.8 55.7001 24.8 55.5001 25.7H37.6001C38.6001 28.3 40.9001 29.2 43.7001 29.2ZM48.3001 20.1C47.5001 17.2 45.2001 16.1 42.9001 16.1C40.0001 16.1 38.1001 17.5 37.4001 20.1H48.3001Z" fill="#FFC700"/>
<path d="M82.0999 10.1L72.7999 35.3H64.1999L54.8999 10.1H63.2999L68.5999 26.1L73.8999 10.1C73.8999 10.1 82.0999 10.1 82.0999 10.1Z" fill="#FFC700"/>
<path d="M83.3999 10.1H90.9999V35.3H83.3999V10.1Z" fill="#FFC700"/>
<path d="M93.6001 22.7C93.6001 15.2 99.3001 9.40002 107 9.40002C111.9 9.40002 116.2 12 118.4 15.9L111.8 19.7C110.9 17.9 109.1 16.9 106.9 16.9C103.6 16.9 101.2 19.3 101.2 22.7C101.2 26.2 103.6 28.5 106.9 28.5C109.1 28.5 111 27.4 111.8 25.7L118.4 29.5C116.3 33.4 112 36 107 36C99.3001 36 93.6001 30.2 93.6001 22.7Z" fill="#FFC700"/>
<path d="M132.8 29.2C134.9 29.2 136.6 28.4 137.6 27.3L143.7 30.8C141.2 34.2 137.5 36 132.7 36C124.1 36 118.7 30.2 118.7 22.7C118.7 15.2 124.2 9.40002 132.1 9.40002C139.5 9.40002 144.9 15.1 144.9 22.7C144.9 23.8 144.8 24.8 144.6 25.7H126.7C127.7 28.3 130 29.2 132.8 29.2ZM137.5 20.1C136.7 17.2 134.4 16.1 132.1 16.1C129.2 16.1 127.3 17.5 126.6 20.1H137.5Z" fill="#FFC700"/>
<path d="M83.3999 0V10.1L90.9999 0H83.3999Z" fill="#FFC700"/>
</svg>

<svg width="145" height="36" viewBox="0 0 145 36" fill="none" xmlns="http://www.w3.org/2000/svg"><path d="M27.22 0v35.3h-7.6v-2.4c-1.7 1.9-4.1 3.1-7.51 3.1C5.5 36 0 30.2 0 22.7 0 15.2 5.5 9.4 12.1 9.4c3.41 0 5.91 1.2 7.51 3.1V0h7.6Zm-7.6 22.7c0-3.8-2.5-6.2-6.01-6.2-3.5 0-6 2.4-6 6.2 0 3.8 2.5 6.2 6 6.2 3.5-.1 6-2.4 6-6.2ZM43.73 29.2c2.1 0 3.8-.8 4.8-1.9l6.1 3.5c-2.5 3.4-6.2 5.2-11 5.2-8.6 0-14.01-5.8-14.01-13.3 0-7.5 5.4-13.3 13.4-13.3 7.41 0 12.82 5.7 12.82 13.3 0 1.1-.1 2.1-.3 3H37.63c1 2.6 3.3 3.5 6.1 3.5Zm4.6-9.1c-.8-2.9-3.1-4-5.4-4-2.9 0-4.8 1.4-5.5 4h10.9ZM82.16 10.1l-9.31 25.2h-8.6l-9.31-25.2h8.4l5.3 16 5.31-16h8.2ZM83.46 10.1h7.6v25.2h-7.6V10.1ZM93.67 22.7c0-7.5 5.7-13.3 13.4-13.3 4.9 0 9.21 2.6 11.41 6.5l-6.6 3.8c-.9-1.8-2.7-2.8-4.9-2.8-3.3 0-5.71 2.4-5.71 5.8 0 3.5 2.4 5.8 5.7 5.8 2.2 0 4.1-1.1 4.9-2.8l6.61 3.8c-2.1 3.9-6.4 6.5-11.4 6.5-7.71 0-13.41-5.8-13.41-13.3ZM132.9 29.2c2.1 0 3.8-.8 4.8-1.9l6.1 3.5c-2.5 3.4-6.2 5.2-11 5.2-8.61 0-14.02-5.8-14.02-13.3 0-7.5 5.5-13.3 13.41-13.3 7.4 0 12.81 5.7 12.81 13.3 0 1.1-.1 2.1-.3 3h-17.91c1 2.6 3.3 3.5 6.1 3.5Zm4.7-9.1c-.8-2.9-3.1-4-5.4-4-2.91 0-4.81 1.4-5.51 4h10.9ZM83.46 0v10.1L91.06 0h-7.6Z" fill="#FFC700"/></svg>
